X: 3937
T: Blackbird, The
R: hornpipe
M: 4/4
K: Dmixolydian
GA|B2cB A2Bc|d2AG F2DE|FGAF GcAG|F2D2 D2:|
|:(3EFG|Add^c d2eg|fded cAGc|Add^c dfag|f2d2 d2fe|
dcAF G2Ad|~d2AG F2DE|FGAF GcAG|F2D2 D2:|

